icons/wicket.svg

<?xml version="1.0" encoding="UTF-8"?>
<svg width="512px" height="76px" viewBox="0 0 512 76" version="1.1" xmlns="http://www.w3.org/2000/svg" xmlns:xlink="http://www.w3.org/1999/xlink" preserveAspectRatio="xMidYMid">
		<g>
				<g transform="translate(222.499800, 0.056500)">
						<path d="M37.216,-1.42108547e-14 C57.771,-1.42108547e-14 74.433,16.662 74.433,37.216 C74.433,57.771 57.771,74.434 37.216,74.434 C16.662,74.434 0,57.771 0,37.216 C0,16.662 16.662,-1.42108547e-14 37.216,-1.42108547e-14" fill="#FF9925"></path>
						<polygon fill="#FFFFFF" points="23.2599 23.2602 23.2599 51.1732 32.5649 51.1732 41.8679 51.1732 51.1729 51.1732 51.1729 23.2602 41.8679 41.8682 37.2159 32.5642 32.5649 41.8682"></polygon>
				</g>
				<path d="M126.7223,0 C130.3233,0 133.0233,1 135.0233,2.5 C136.905653,3.91176471 138.257404,5.76643599 139.160256,7.64882801 L139.3243,8.002 C140.4243,10.301 141.0243,13.002 141.1243,15.903 L141.1243,26.004 L131.0233,26.004 L131.0233,15.903 C131.0233,13.901 130.5223,12.501 129.4223,11.302 C128.9223,10.801 128.0223,10.501 126.9213,10.501 C125.0213,10.501 124.1213,11.901 123.6213,13.202 C123.3213,14.002 123.2213,14.902 123.1213,15.903 L123.1213,59.211 C123.2213,61.31 123.8213,62.711 124.8213,63.81 C125.3213,64.311 126.0213,64.611 126.9213,64.611 C129.2223,64.611 130.1223,63.411 130.6233,61.911 C130.9223,61.211 131.0233,60.31 131.0233,59.211 L131.0233,49.108 L141.1243,49.108 L141.1243,59.211 C141.03055,62.0235 140.497347,64.5723281 139.524691,66.7759109 L139.3243,67.212 C138.477241,69.0943529 137.18639,70.8881246 135.370043,72.3440366 L135.0233,72.613 C133.0233,74.212 130.3233,75.113 126.7223,75.113 C123.26534,75.113 120.54566,74.2826384 118.564145,72.8015166 L118.3203,72.613 C116.437947,71.2002941 115.175663,69.4341488 114.282503,67.5638423 L114.1193,67.212 C113.0193,64.911 112.4193,62.211 112.3193,59.211 L112.3193,15.903 C112.41305,13.1833125 112.946253,10.6394063 113.918909,8.43772412 L114.1193,8.002 C115.0203,6 116.3203,4 118.3203,2.5 C120.3203,1 123.1213,0 126.7223,0 Z M395.4791,0 C399.0781,0 401.7791,1 403.7791,2.5 C405.661453,3.91176471 407.01409,5.76643599 407.917046,7.64882801 L408.0811,8.002 C409.1801,10.301 409.7811,13.002 409.8811,15.903 L409.8811,26.004 L399.7791,26.004 L399.7791,15.903 C399.7791,13.901 399.2781,12.501 398.1791,11.302 C397.6801,10.801 396.7781,10.501 395.6781,10.501 C393.7781,10.501 392.8771,11.901 392.3781,13.202 C392.0781,14.002 391.9781,14.902 391.8781,15.903 L391.8781,59.211 C391.9781,61.31 392.5771,62.711 393.5781,63.81 C394.0781,64.311 394.7781,64.611 395.6781,64.611 C397.9801,64.611 398.8791,63.411 399.3791,61.911 C399.6791,61.211 399.7791,60.31 399.7791,59.211 L399.7791,49.108 L409.8811,49.108 L409.8811,59.211 C409.78735,62.0235 409.253268,64.5723281 408.281326,66.7759109 L408.0811,67.212 C407.234041,69.0943529 405.942304,70.8881246 404.125853,72.3440366 L403.7791,72.613 C401.7791,74.212 399.0781,75.113 395.4791,75.113 C392.02214,75.113 389.30246,74.2826384 387.320945,72.8015166 L387.0771,72.613 C385.194747,71.2002941 383.932463,69.4341488 383.039303,67.5638423 L382.8761,67.212 C381.7771,64.911 381.1761,62.211 381.0751,59.211 L381.0751,15.903 C381.169788,13.1833125 381.703928,10.6394063 382.675874,8.43772412 L382.8761,8.002 C383.7771,6 385.0771,4 387.0771,2.5 C389.0771,1 391.8781,0 395.4791,0 Z M158.4279,0.7992 L158.4279,31.2052 L166.8299,31.2052 L166.8299,0.7992 L177.6309,0.7992 L177.6309,74.3132 L166.8299,74.3132 L166.8299,42.3072 L158.4279,42.3072 L158.4279,74.3132 L147.6259,74.3132 L147.6259,0.7992 L158.4279,0.7992 Z M210.3371,0.7994 L210.3371,11.9014 L196.4341,11.9014 L196.4341,31.2054 L206.4361,31.2054 L206.4361,43.0064 L196.4341,43.0064 L196.4341,63.2104 L210.3371,63.2104 L210.3371,74.3134 L185.6321,74.3134 L185.6321,0.7994 L210.3371,0.7994 Z M319.5655,0.7991 L323.8665,39.0061 L324.0665,41.4071 L324.8655,41.4071 L325.1655,39.0061 L329.7675,0.7991 L337.5685,0.7991 L342.1695,39.0061 L342.4705,41.4071 L343.2695,41.4071 L343.4705,39.0061 L347.7695,0.7991 L357.7725,0.7991 L347.8695,74.3131 L339.4705,74.3131 L334.4685,39.5061 L333.8675,35.2061 L333.4685,35.2061 L332.8685,39.5061 L327.8665,74.3131 L319.4655,74.3131 L309.5635,0.7991 L319.5655,0.7991 Z M373.7758,0.7994 L373.7758,74.3134 L362.9728,74.3134 L362.9728,0.7994 L373.7758,0.7994 Z M427.1849,0.7994 L427.1849,26.5044 L427.5839,26.5044 L428.0839,25.3034 L437.0859,0.7994 L447.5869,0.7994 L437.6859,25.0034 L448.8889,74.3134 L438.3859,74.3134 L430.8849,42.3074 L430.5849,40.8064 L430.2859,40.8064 L429.6859,42.3074 L427.1849,48.3084 L427.1849,74.3134 L416.3819,74.3134 L416.3819,0.7994 L427.1849,0.7994 Z M478.5939,0.7994 L478.5939,11.9014 L464.6919,11.9014 L464.6919,31.2054 L474.6939,31.2054 L474.6939,43.0064 L464.6919,43.0064 L464.6919,63.2104 L478.5939,63.2104 L478.5939,74.3134 L453.8899,74.3134 L453.8899,0.7994 L478.5939,0.7994 Z M511.9992,0.7994 L511.9992,11.9014 L501.7982,11.9014 L501.7982,74.3134 L490.9962,74.3134 L490.9962,11.9014 L480.7952,11.9014 L480.7952,0.7994 L511.9992,0.7994 Z M24.304,0.7997 L35.407,74.3127 L24.904,74.3127 L22.904,59.3097 L12.502,59.3097 L10.502,74.3127 L0,74.3127 L11.102,0.7997 L24.304,0.7997 Z M51.2098,0.7998 C55.9098,0.7998 60.6108,1.9998 64.2118,5.4008 C67.8128,8.8008 70.2128,14.4028 70.2128,22.8038 C70.2128,31.2048 67.8128,36.7058 64.2118,40.1068 C60.6108,43.5078 55.9098,44.9078 51.2098,44.9078 L51.2098,74.3128 L40.4078,74.3128 L40.4078,0.7998 L51.2098,0.7998 Z M96.9168,0.7997 L108.0198,74.3127 L97.5168,74.3127 L95.5168,59.3097 L85.1148,59.3097 L83.1148,74.3127 L72.6128,74.3127 L83.7148,0.7997 L96.9168,0.7997 Z M18.003,22.8037 L17.403,22.8037 L17.103,24.7037 L14.003,47.9087 L21.404,47.9087 L18.303,24.7037 L18.003,22.8037 Z M90.6158,22.8037 L90.0158,22.8037 L89.7158,24.7037 L86.6158,47.9087 L94.0168,47.9087 L90.9158,24.7037 L90.6158,22.8037 Z M51.2098,11.8018 L51.2098,33.9058 C54.5098,33.9058 56.6098,33.3048 57.8108,31.6048 C59.0108,30.0048 59.3108,27.3048 59.3108,23.2038 L59.3059895,22.3435449 C59.263351,18.6949888 58.9250857,16.0742286 57.8108,14.4028 C56.6098,12.6008 54.5098,11.8018 51.2098,11.8018 Z" fill="#111111"></path>
		</g>
</svg>

<svg xmlns="http://www.w3.org/2000/svg" viewBox="0 0 511.999 75.113">
  <path fill="#ff9925" d="M259.716.057c20.555 0 37.217 16.662 37.217 37.215 0 20.556-16.662 37.219-37.217 37.219-20.554 0-37.216-16.663-37.216-37.218 0-20.555 16.662-37.217 37.216-37.217"/>
  <path fill="#fff" d="M255.065 51.23h18.608V23.317l-9.305 18.608-4.652-9.304-4.651 9.304-9.305-18.608V51.23z"/>
  <path fill="#111" d="M126.722 0c3.601 0 6.301 1 8.301 2.5 1.883 1.412 3.234 3.266 4.137 5.149l.164.353c1.1 2.299 1.7 5 1.8 7.901v10.101h-10.1V15.903c0-2.002-.502-3.402-1.602-4.601-.5-.501-1.4-.801-2.5-.801-1.9 0-2.8 1.4-3.3 2.701-.3.8-.4 1.7-.5 2.701v43.308c.1 2.099.7 3.5 1.7 4.599.5.501 1.2.801 2.1.801 2.3 0 3.2-1.2 3.701-2.7.3-.7.4-1.601.4-2.7V49.108h10.101v10.103c-.093 2.813-.627 5.361-1.6 7.565l-.2.436a13.79 13.79 0 0 1-3.954 5.132l-.347.269c-2 1.599-4.7 2.5-8.3 2.5-3.458 0-6.177-.83-8.159-2.311l-.244-.189c-1.882-1.413-3.144-3.179-4.037-5.05l-.164-.351c-1.1-2.301-1.7-5.001-1.8-8.001V15.903c.094-2.72.627-5.264 1.6-7.465l.2-.436C115.02 6 116.32 4 118.32 2.5c2-1.5 4.801-2.5 8.402-2.5zM395.48 0c3.6 0 6.3 1 8.3 2.5 1.882 1.412 3.235 3.266 4.138 5.149l.164.353c1.1 2.299 1.7 5 1.8 7.901v10.101H399.78V15.903c0-2.002-.5-3.402-1.6-4.601-.499-.501-1.4-.801-2.5-.801-1.9 0-2.802 1.4-3.3 2.701-.3.8-.4 1.7-.5 2.701v43.308c.1 2.099.698 3.5 1.7 4.599.5.501 1.2.801 2.1.801 2.301 0 3.2-1.2 3.7-2.7.3-.7.4-1.601.4-2.7V49.108h10.102v10.103c-.094 2.813-.628 5.361-1.6 7.565l-.2.436a13.792 13.792 0 0 1-3.955 5.132l-.347.269c-2 1.599-4.7 2.5-8.3 2.5-3.457 0-6.177-.83-8.158-2.311l-.244-.189c-1.882-1.413-3.145-3.179-4.038-5.05l-.163-.351c-1.099-2.301-1.7-5.001-1.8-8.001V15.903c.094-2.72.628-5.264 1.6-7.465l.2-.436C383.777 6 385.077 4 387.077 2.5c2-1.5 4.801-2.5 8.402-2.5zM158.428.8v30.405h8.402V.8h10.8v73.514h-10.8V42.307h-8.402v32.006h-10.802V.8zm51.91 0V11.9h-13.904v19.304h10.002v11.801h-10.002V63.21h13.903v11.103h-24.705V.8zm109.227 0 4.301 38.206.2 2.401h.8l.3-2.4L329.766.798h7.801l4.601 38.207.301 2.401h.8l.2-2.4 4.3-38.208h10.002l-9.903 73.514h-8.399l-5.002-34.807-.6-4.3h-.4l-.6 4.3-5.002 34.807h-8.4L309.562.8zm54.21 0v73.513h-10.802V.8zm53.41 0v25.704h.399l.5-1.2L437.086.798h10.5l-9.9 24.204 11.203 49.31h-10.503l-7.501-32.006-.3-1.5h-.3l-.6 1.5-2.5 6.001v26.005h-10.803V.8zm51.409 0V11.9h-13.902v19.304h10.002v11.801h-10.002V63.21h13.902v11.103H453.89V.8zm33.405 0V11.9h-10.2v62.412h-10.803V11.901h-10.2V.8zM24.304.8l11.103 73.513H24.904l-2-15.003H12.502l-2 15.003H0L11.102.8zM51.21.8c4.7 0 9.4 1.2 13.002 4.6 3.6 3.4 6 9.003 6 17.404 0 8.4-2.4 13.902-6 17.303-3.601 3.4-8.302 4.8-13.002 4.8v29.406H40.408V.8zm45.707 0 11.103 73.513H97.517l-2-15.003H85.115l-2 15.003H72.613L83.715.8zM18.003 22.804h-.6l-.3 1.9-3.1 23.205h7.401l-3.101-23.205zm72.613 0h-.6l-.3 1.9-3.1 23.205h7.4l-3.1-23.205zM51.21 11.802v22.104c3.3 0 5.4-.601 6.6-2.301 1.2-1.6 1.5-4.3 1.5-8.401l-.004-.86c-.043-3.649-.38-6.27-1.495-7.941-1.201-1.802-3.301-2.601-6.601-2.601z"/>
</svg>
